X: 28332
T: Mug Of Brown Ale, The
R: jig
M: 6/8
K: Adorian
|:eAA fAA|gfg age|dBA G2 A|BAB dBd|
eAA fAA|gfg age|dBd gdB|BAG A3:|
|:efg a3|aba age|dBd gfg|gag ged|
efg a3|aba age|dBd gdB|BAG A3:|

